T: Bonnie Scotland
M: 4/4
L: 1/8
K: Gmaj
G2 GA Bd d2 | BABG AGED | EGGA Bd d2 |1 egfa ged :|2 egfa g3 ||gabg ge d2 | efge dB B2 | gabg ge d2 | egfa g3 f |gabg ge d2 | efge dBBA | G2 GA Bd d2 | egfa g3 ||
